client/src/assets/imgs/logo-nameless.svg

<?xml version="1.0" encoding="UTF-8" standalone="no"?>
<svg
   width="100%"
   height="100%"
   viewBox="0 0 630 421"
   version="1.1"
   xml:space="preserve"
   style="fill-rule:evenodd;clip-rule:evenodd;stroke-linejoin:round;stroke-miterlimit:2;"
   id="svg13"
   sodipodi:docname="logo-nameless.svg"
   inkscape:version="1.4 (e7c3feb100, 2024-10-09)"
   xmlns:inkscape="http://www.inkscape.org/namespaces/inkscape"
   xmlns:sodipodi="http://sodipodi.sourceforge.net/DTD/sodipodi-0.dtd"
   xmlns="http://www.w3.org/2000/svg"
   xmlns:svg="http://www.w3.org/2000/svg"><sodipodi:namedview
   id="namedview13"
   pagecolor="#ffffff"
   bordercolor="#000000"
   borderopacity="0.25"
   inkscape:showpageshadow="2"
   inkscape:pageopacity="0.0"
   inkscape:pagecheckerboard="0"
   inkscape:deskcolor="#d1d1d1"
   inkscape:zoom="0.97836033"
   inkscape:cx="90.968529"
   inkscape:cy="126.23161"
   inkscape:window-width="2560"
   inkscape:window-height="1371"
   inkscape:window-x="0"
   inkscape:window-y="0"
   inkscape:window-maximized="1"
   inkscape:current-layer="svg13" />
    <g
   id="Prancheta1"
   transform="matrix(1,0,0,0.97422892,-925.574,-1647.7192)">
        <rect
   x="925.57397"
   y="1696.87"
   width="629.16699"
   height="420.673"
   style="fill:none"
   id="rect1" />
        <clipPath
   id="_clip1">
            <rect
   x="925.57397"
   y="1696.87"
   width="629.16699"
   height="420.673"
   id="rect2" />
        </clipPath>
        <g
   clip-path="url(#_clip1)"
   id="g6">
            <g
   transform="translate(-38.8787,0.86552)"
   id="g5">
                <g
   id="g4">
                    <g
   transform="matrix(1.1212,0,0,1.1212,707.714,1331.54)"
   id="g2">
                        <path
   d="m 514.655,471.834 h 145.6 c 5.6,0 10.8,-1.066 15.6,-3.2 4.8,-2.133 9.067,-5 12.8,-8.6 3.733,-3.6 6.667,-7.933 8.8,-13 2.133,-5.066 3.2,-10.4 3.2,-16 0,-5.6 -1.067,-10.8 -3.2,-15.6 -2.133,-4.8 -5.067,-9 -8.8,-12.6 -3.733,-3.6 -8,-6.466 -12.8,-8.6 -4.8,-2.133 -10,-3.2 -15.6,-3.2 h -145.6 v -65.2 h 145.6 c 14.4,0 28,2.734 40.8,8.2 12.8,5.467 23.933,12.867 33.4,22.2 9.467,9.334 17,20.334 22.6,33 5.6,12.667 8.533,26.2 8.8,40.6 0,12 -1.667,23.467 -5,34.4 -3.333,10.934 -8.733,21.067 -16.2,30.4 13.867,10.4 25,23.6 33.4,39.6 8.4,16 12.6,33.334 12.6,52 0,15.734 -3,30.6 -9,44.6 -6,14 -14.2,26.2 -24.6,36.6 -10.4,10.4 -22.533,18.6 -36.4,24.6 -13.867,6 -28.667,9 -44.4,9 h -161.6 z m 65.2,65.2 v 98 h 96.537 c 6.646,0 12.961,-1.266 18.944,-3.8 5.983,-2.533 11.236,-6 15.756,-10.4 4.521,-4.4 8.045,-9.533 10.572,-15.4 2.527,-5.866 3.791,-12.266 3.791,-19.2 0,-6.666 -1.264,-13 -3.791,-19 -2.527,-6 -6.051,-11.266 -10.572,-15.8 -4.52,-4.533 -9.773,-8.066 -15.756,-10.6 -5.983,-2.533 -12.298,-3.8 -18.944,-3.8 z"
   style="fill:url(#_Linear2);fill-rule:nonzero"
   id="path2" />
                    </g>
                    <g
   transform="matrix(-1.1212,0,0,1.1212,1851.51,1331.54)"
   id="g3">
                        <path
   d="m 514.655,471.834 h 145.6 c 5.6,0 10.8,-1.066 15.6,-3.2 4.8,-2.133 9.067,-5 12.8,-8.6 3.733,-3.6 6.667,-7.933 8.8,-13 2.133,-5.066 3.2,-10.4 3.2,-16 0,-5.6 -1.067,-10.8 -3.2,-15.6 -2.133,-4.8 -5.067,-9 -8.8,-12.6 -3.733,-3.6 -8,-6.466 -12.8,-8.6 -4.8,-2.133 -10,-3.2 -15.6,-3.2 h -145.6 v -65.2 h 145.6 c 14.4,0 28,2.734 40.8,8.2 12.8,5.467 23.933,12.867 33.4,22.2 9.467,9.334 17,20.334 22.6,33 5.6,12.667 8.533,26.2 8.8,40.6 0,12 -1.667,23.467 -5,34.4 -3.333,10.934 -8.733,21.067 -16.2,30.4 13.867,10.4 25,23.6 33.4,39.6 8.4,16 12.6,33.334 12.6,52 0,15.734 -3,30.6 -9,44.6 -6,14 -14.2,26.2 -24.6,36.6 -10.4,10.4 -22.533,18.6 -36.4,24.6 -13.867,6 -28.667,9 -44.4,9 h -161.6 z m 65.2,65.2 v 98 h 96.537 c 6.646,0 12.961,-1.266 18.944,-3.8 5.983,-2.533 11.236,-6 15.756,-10.4 4.521,-4.4 8.045,-9.533 10.572,-15.4 2.527,-5.866 3.791,-12.266 3.791,-19.2 0,-6.666 -1.264,-13 -3.791,-19 -2.527,-6 -6.051,-11.266 -10.572,-15.8 -4.52,-4.533 -9.773,-8.066 -15.756,-10.6 -5.983,-2.533 -12.298,-3.8 -18.944,-3.8 z"
   style="fill:url(#_Linear3);fill-rule:nonzero"
   id="path3" />
                    </g>
                </g>
            </g>
        </g>
    </g>
    <defs
   id="defs13">
        <linearGradient
   id="_Linear2"
   x1="0"
   y1="0"
   x2="1"
   y2="0"
   gradientUnits="userSpaceOnUse"
   gradientTransform="matrix(277.606,483.24,-483.24,277.606,505.813,317.839)"><stop
     offset="0"
     style="stop-color:rgb(110,0,255);stop-opacity:1"
     id="stop6" /><stop
     offset="0.35"
     style="stop-color:rgb(178,0,255);stop-opacity:1"
     id="stop7" /><stop
     offset="0.64"
     style="stop-color:rgb(255,0,250);stop-opacity:1"
     id="stop8" /><stop
     offset="1"
     style="stop-color:rgb(255,0,101);stop-opacity:1"
     id="stop9" /></linearGradient>
        <linearGradient
   id="_Linear3"
   x1="0"
   y1="0"
   x2="1"
   y2="0"
   gradientUnits="userSpaceOnUse"
   gradientTransform="matrix(277.606,483.24,-483.24,277.606,505.813,317.839)"><stop
     offset="0"
     style="stop-color:rgb(110,0,255);stop-opacity:1"
     id="stop10" /><stop
     offset="0.35"
     style="stop-color:rgb(178,0,255);stop-opacity:1"
     id="stop11" /><stop
     offset="0.64"
     style="stop-color:rgb(255,0,250);stop-opacity:1"
     id="stop12" /><stop
     offset="1"
     style="stop-color:rgb(255,0,101);stop-opacity:1"
     id="stop13" /></linearGradient>
    </defs>
</svg>

<?xml version="1.0" encoding="UTF-8" standalone="no"?>
<!DOCTYPE svg PUBLIC "-//W3C//DTD SVG 1.1//EN" "http://www.w3.org/Graphics/SVG/1.1/DTD/svg11.dtd">
<svg width="100%" height="100%" viewBox="0 0 630 421" version="1.1" xmlns="http://www.w3.org/2000/svg" xmlns:xlink="http://www.w3.org/1999/xlink" xml:space="preserve" xmlns:serif="http://www.serif.com/" style="fill-rule:evenodd;clip-rule:evenodd;stroke-linejoin:round;stroke-miterlimit:2;">
    <g id="Prancheta1" transform="matrix(1,0,0,1,-925.574,-1696.87)">
        <rect x="925.574" y="1696.87" width="629.167" height="420.673" style="fill:none;"/>
        <clipPath id="_clip1">
            <rect x="925.574" y="1696.87" width="629.167" height="420.673"/>
        </clipPath>
        <g clip-path="url(#_clip1)">
            <g transform="matrix(1,0,0,1,-38.8787,0.86552)">
                <g>
                    <g transform="matrix(1.1212,0,0,1.1212,707.714,1331.54)">
                        <path d="M514.655,471.834L660.255,471.834C665.855,471.834 671.055,470.768 675.855,468.634C680.655,466.501 684.922,463.634 688.655,460.034C692.388,456.434 695.322,452.101 697.455,447.034C699.588,441.968 700.655,436.634 700.655,431.034C700.655,425.434 699.588,420.234 697.455,415.434C695.322,410.634 692.388,406.434 688.655,402.834C684.922,399.234 680.655,396.368 675.855,394.234C671.055,392.101 665.855,391.034 660.255,391.034L514.655,391.034L514.655,325.834L660.255,325.834C674.655,325.834 688.255,328.568 701.055,334.034C713.855,339.501 724.988,346.901 734.455,356.234C743.922,365.568 751.455,376.568 757.055,389.234C762.655,401.901 765.588,415.434 765.855,429.834C765.855,441.834 764.188,453.301 760.855,464.234C757.522,475.168 752.122,485.301 744.655,494.634C758.522,505.034 769.655,518.234 778.055,534.234C786.455,550.234 790.655,567.568 790.655,586.234C790.655,601.968 787.655,616.834 781.655,630.834C775.655,644.834 767.455,657.034 757.055,667.434C746.655,677.834 734.522,686.034 720.655,692.034C706.788,698.034 691.988,701.034 676.255,701.034L514.655,701.034L514.655,471.834ZM579.855,537.034L579.855,635.034L676.392,635.034C683.038,635.034 689.353,633.768 695.336,631.234C701.319,628.701 706.572,625.234 711.092,620.834C715.613,616.434 719.137,611.301 721.664,605.434C724.191,599.568 725.455,593.168 725.455,586.234C725.455,579.568 724.191,573.234 721.664,567.234C719.137,561.234 715.613,555.968 711.092,551.434C706.572,546.901 701.319,543.368 695.336,540.834C689.353,538.301 683.038,537.034 676.392,537.034L579.855,537.034Z" style="fill:url(#_Linear2);fill-rule:nonzero;"/>
                    </g>
                    <g transform="matrix(-1.1212,0,0,1.1212,1851.51,1331.54)">
                        <path d="M514.655,471.834L660.255,471.834C665.855,471.834 671.055,470.768 675.855,468.634C680.655,466.501 684.922,463.634 688.655,460.034C692.388,456.434 695.322,452.101 697.455,447.034C699.588,441.968 700.655,436.634 700.655,431.034C700.655,425.434 699.588,420.234 697.455,415.434C695.322,410.634 692.388,406.434 688.655,402.834C684.922,399.234 680.655,396.368 675.855,394.234C671.055,392.101 665.855,391.034 660.255,391.034L514.655,391.034L514.655,325.834L660.255,325.834C674.655,325.834 688.255,328.568 701.055,334.034C713.855,339.501 724.988,346.901 734.455,356.234C743.922,365.568 751.455,376.568 757.055,389.234C762.655,401.901 765.588,415.434 765.855,429.834C765.855,441.834 764.188,453.301 760.855,464.234C757.522,475.168 752.122,485.301 744.655,494.634C758.522,505.034 769.655,518.234 778.055,534.234C786.455,550.234 790.655,567.568 790.655,586.234C790.655,601.968 787.655,616.834 781.655,630.834C775.655,644.834 767.455,657.034 757.055,667.434C746.655,677.834 734.522,686.034 720.655,692.034C706.788,698.034 691.988,701.034 676.255,701.034L514.655,701.034L514.655,471.834ZM579.855,537.034L579.855,635.034L676.392,635.034C683.038,635.034 689.353,633.768 695.336,631.234C701.319,628.701 706.572,625.234 711.092,620.834C715.613,616.434 719.137,611.301 721.664,605.434C724.191,599.568 725.455,593.168 725.455,586.234C725.455,579.568 724.191,573.234 721.664,567.234C719.137,561.234 715.613,555.968 711.092,551.434C706.572,546.901 701.319,543.368 695.336,540.834C689.353,538.301 683.038,537.034 676.392,537.034L579.855,537.034Z" style="fill:url(#_Linear3);fill-rule:nonzero;"/>
                    </g>
                </g>
            </g>
        </g>
    </g>
    <defs>
        <linearGradient id="_Linear2" x1="0" y1="0" x2="1" y2="0" gradientUnits="userSpaceOnUse" gradientTransform="matrix(277.606,483.24,-483.24,277.606,505.813,317.839)"><stop offset="0" style="stop-color:rgb(110,0,255);stop-opacity:1"/><stop offset="0.35" style="stop-color:rgb(178,0,255);stop-opacity:1"/><stop offset="0.64" style="stop-color:rgb(255,0,250);stop-opacity:1"/><stop offset="1" style="stop-color:rgb(255,0,101);stop-opacity:1"/></linearGradient>
        <linearGradient id="_Linear3" x1="0" y1="0" x2="1" y2="0" gradientUnits="userSpaceOnUse" gradientTransform="matrix(277.606,483.24,-483.24,277.606,505.813,317.839)"><stop offset="0" style="stop-color:rgb(110,0,255);stop-opacity:1"/><stop offset="0.35" style="stop-color:rgb(178,0,255);stop-opacity:1"/><stop offset="0.64" style="stop-color:rgb(255,0,250);stop-opacity:1"/><stop offset="1" style="stop-color:rgb(255,0,101);stop-opacity:1"/></linearGradient>
    </defs>
</svg>
